X: 68
T: Tian e
L: 1/8
M: 4/4
K: F
A2F DC4 [I:setbarnb 1]| 
c2d fd4 | 
d2c A F G c A | 
G8 | 
c2d fd4 | 
G2F D2<C2D | 
A2F D C DA2 | 
D8 |]

@@@ Tune index: 8736
